src/assets/images/w3r.svg

<svg xmlns="http://www.w3.org/2000/svg" width="600" height="600" fill="none"><path fill="#6C7350" fill-opacity=".8" d="M127 520h366v16h-36v16H245.5v-16H127v-16Z"/><path fill="#503A2A" d="M329 135h72v28h-72v-28Z"/><path fill="#6D6966" d="M329 120h29v15.5h-14.5V149H329v-29ZM315 135h14v28h-14zM329 178h14v42h-14zM329 235h14v28h-14zM315 249h14v14h-14z"/><path fill="#838383" d="M329 220h14v15h-14v-15Z"/><path fill="#291C11" d="M343 149h15v29h-15z"/><path fill="#A48517" d="M343 178h15v42h-15v-42ZM386 163h15v43h-15v-43ZM358 249h14v42.5h-14V249ZM386 263h15v28.5h-15V263Z"/><path fill="#2E477F" d="M401 163h28v29h-28v-29Z"/><path fill="#838383" d="M401 106h42.5v14.5H458V163h-57v-57Z"/><path fill="#A6A6A6" d="M415 120.5h14V149h-14v-28.5ZM429 120.5h29V135h-29v-14.5ZM401 135h14v28h-14z"/><path fill="#503A2A" d="M429 149h29v29h-14.5v-14.5H429V149ZM415 163h14v15h-14v-15Z"/><path fill="#2E477F" d="M329 163h14v15h-14z"/><path fill="#405A94" d="M358 163h28v29h-28zM358 192h28v43h-28z"/><path fill="#2E477F" d="M415 192h14v71h-14zM343 220h15v15h-15v-15ZM343 249h15v14h-15v-14ZM329 278h15v14h-15z"/><path fill="#405A94" d="M343 263h15v28.5h-15V263ZM329 291.5h14l.5 58.5H329v-58.5Z"/><path fill="#2E477F" d="M329 278h14v13.5h-14V278ZM314 335h15v14h-15v-14ZM314 349h15v13.5h-15V349Z"/><path fill="#405A94" d="M314 349h15v14h-15z"/><path fill="#2E477F" d="M429 335h29v28h-29v-28ZM415 277h14v14.5h-14V277Z"/><path fill="#405A94" d="M401 277h14v14.5h-14V277ZM429 349h14v15h-14v-15Z"/><path fill="#405A94" d="M429 349h14v14h-14v-14ZM429 306h14v15h-14v-15ZM401 192h14v28h-14v-28ZM401 249h14v14h-14v-14ZM415 291.5h14V349h-14v-57.5Z"/><path fill="#291C11" d="M358 178h14v14h-14zM372 192h14v14h-14zM386 206h15v14h-15v-14Z"/><path fill="#503A2A" d="M386 249h15v14h-15v-14ZM401 263h14v14h-14v-14Z"/><path fill="#A48517" d="M386 220h15v15h-15v-15ZM358 220h15v15h-15v-15Z"/><path fill="#291C11" d="M343 335h28v72h-28zM401 220h14v15h-14v-15ZM415 235h14v14h-14z"/><path fill="#A6A6A6" d="M415 389h28v32h-28z"/><path fill="#291C11" d="M401 349h42v57h-13.5v-15h-15v15H401v-57ZM415 263h14v14h-14zM429 263h14v43h-14z"/><path fill="#503A2A" d="M343 235h72v14h-72v-14Z"/><path fill="#6D6966" d="M358 291.5h43V335h-43v-43.5Z"/><path fill="#6D6966" d="M372 249h14v43h-14z"/><path fill="#A48517" d="M343 291.5h15V349h-15v-57.5ZM401 291.5h14V349h-14v-57.5ZM329 349h14v14h-14v-14ZM314 363h15v14h-15zM415 349h15v14h-15zM429 363h14v15h-14z"/><path fill="#212833" d="M329 363h14v14h-14z"/><path fill="#838383" d="M329 377h14v30h-14z"/><path fill="#6D6966" d="M328 506h15v14h-15zM343 392h14v114h-14V392Z"/><path fill="#503A2A" d="M343 506h14v14h-14z"/><path fill="#838383" d="M443 463.5h14V506h-14v-42.5ZM429 421h14v42.5h-14V421ZM429 506h14v14h-14z"/><path fill="#503A2A" d="M443 506h14v14h-14v-14Z"/><path fill="#A6A6A6" d="M358 49h43v71h-43V49Z"/><path fill="#838383" d="M386 106.5V92h15v28h-29v-13.5h14ZM372 49h29v29h-15V63.5h-14V49Z"/><path fill="#291C11" d="M358 78h28v14h-28zM386 120v-13.5h15V92h14v28.5h-14v14.649h-14.5V149h-14v-13.5H358V120h28ZM443 321h29v14h-29zM458 349h28v14h-28zM458 335h14v14h-14z"/><path fill="#A6A6A6" d="M429 321h14v14h-14zM443 278h14v43h-14z"/><path fill="#838383" d="M443 235h14v43h-14zM443 178h15v42h-15z"/><path fill="#838383" d="M429 163h15v43h-15z"/><path fill="#291C11" d="M472 363h14v15h-14zM486 391h14v16h-14zM500 420h14v15h-14zM472 378h28v13h-28zM486 407h28v13h-28z"/><path fill="#A6A6A6" d="M443 220h28v15h-28z"/><path fill="#838383" d="M301 263h28v15h-28v-15Z"/><path fill="#838383" d="M286.5 277.5h28v14h-28v-14Z"/><path fill="#503A2A" d="M256.5 261.5H272v16h-15.5v-16ZM272 277.5h14.5v14H272v-14ZM286.5 291.5h15v15h-15v-15ZM272 306.5h14.5V321H272v-14.5Z"/><path fill="#838383" d="M272 291.5h14.5v15H272v-15ZM257 306.5h15V321h-15v-14.5Z"/><path fill="#6D6966" d="M243 291.5h14v15h-14v-15ZM215 306.5h15V321h-15v-14.5ZM186 321h15v14h-15v-14ZM157.5 335H172v14h-14.5v-14ZM129 349h14.5v14.5H129V349ZM100 363.5h15V378h-15v-14.5Z"/><path fill="#D7D7D7" d="M257 291.5h15v15h-15v-15ZM230 306.5h27V321h-27v-14.5ZM201 321h29v14h-29v-14ZM172 335h29v14h-29v-14ZM143.5 349H172v14.5h-28.5V349ZM115 363.5h28.5V378H115v-14.5ZM86 378h29v14H86v-14Z"/><path fill="#405A94" d="M429 349h14v14h-14v-14Z"/></svg>

<svg width="600" height="600" viewBox="0 0 600 600" fill="none" xmlns="http://www.w3.org/2000/svg">
<path d="M127 520H493V536H457V552H245.5V536H127V520Z" fill="#6C7350" fill-opacity="0.8"/>
<path d="M329 135H401V163H329V135Z" fill="#503A2A"/>
<path d="M329 120H358V135.5H343.5V149H329V120Z" fill="#6D6966"/>
<rect x="315" y="135" width="14" height="28" fill="#6D6966"/>
<rect x="329" y="178" width="14" height="42" fill="#6D6966"/>
<rect x="329" y="235" width="14" height="28" fill="#6D6966"/>
<rect x="315" y="249" width="14" height="14" fill="#6D6966"/>
<path d="M329 220H343V235H329V220Z" fill="#838383"/>
<rect x="343" y="149" width="15" height="29" fill="#291C11"/>
<path d="M343 178H358V220H343V178Z" fill="#A48517"/>
<path d="M386 163H401V206H386V163Z" fill="#A48517"/>
<path d="M358 249H372V291.5H358V249Z" fill="#A48517"/>
<path d="M386 263H401V291.5H386V263Z" fill="#A48517"/>
<path d="M401 163H429V192H401V163Z" fill="#2E477F"/>
<path d="M401 106H443.5V120.5H458V163H401V106Z" fill="#838383"/>
<path d="M415 120.5L429 120.5V149H415V120.5Z" fill="#A6A6A6"/>
<path d="M429 120.5H458V135H429V120.5Z" fill="#A6A6A6"/>
<rect x="401" y="135" width="14" height="28" fill="#A6A6A6"/>
<path d="M429 149H458V178H443.5V163.5H429V149Z" fill="#503A2A"/>
<path d="M415 163L429 163V178H415V163Z" fill="#503A2A"/>
<rect x="329" y="163" width="14" height="15" fill="#2E477F"/>
<rect x="358" y="163" width="28" height="29" fill="#405A94"/>
<rect x="358" y="192" width="28" height="43" fill="#405A94"/>
<rect x="415" y="192" width="14" height="71" fill="#2E477F"/>
<path d="M343 220H358V235H343V220Z" fill="#2E477F"/>
<path d="M343 249H358V263H343V249Z" fill="#2E477F"/>
<rect x="329" y="278" width="15" height="14" fill="#2E477F"/>
<path d="M343 263H358V291.5H343V263Z" fill="#405A94"/>
<path d="M329 291.5H343L343.5 350H329V291.5Z" fill="#405A94"/>
<path d="M329 278H343V291.5H329V278Z" fill="#2E477F"/>
<path d="M314 335H329V349H314V335Z" fill="#2E477F"/>
<path d="M314 349H329V362.5H314V349Z" fill="#2E477F"/>
<rect x="314" y="349" width="15" height="14" fill="#405A94"/>
<path d="M429 335H458V363H429V335Z" fill="#2E477F"/>
<path d="M415 277H429V291.5H415V277Z" fill="#2E477F"/>
<path d="M401 277H415V291.5H401V277Z" fill="#405A94"/>
<path d="M429 349H443V364H429V349Z" fill="#405A94"/>
<path d="M429 349H443V363H429V349Z" fill="#405A94"/>
<path d="M429 306H443V321H429V306Z" fill="#405A94"/>
<path d="M401 192H415V220H401V192Z" fill="#405A94"/>
<path d="M401 249H415V263H401V249Z" fill="#405A94"/>
<path d="M415 291.5H429V349H415V291.5Z" fill="#405A94"/>
<rect x="358" y="178" width="14" height="14" fill="#291C11"/>
<rect x="372" y="192" width="14" height="14" fill="#291C11"/>
<path d="M386 206H401V220H386V206Z" fill="#291C11"/>
<path d="M386 249H401V263H386V249Z" fill="#503A2A"/>
<path d="M401 263H415V277H401V263Z" fill="#503A2A"/>
<path d="M386 220H401V235H386V220Z" fill="#A48517"/>
<path d="M358 220H373V235H358V220Z" fill="#A48517"/>
<rect x="343" y="335" width="28" height="72" fill="#291C11"/>
<path d="M401 220H415V235H401V220Z" fill="#291C11"/>
<rect x="415" y="235" width="14" height="14" fill="#291C11"/>
<rect x="415" y="389" width="28" height="32" fill="#A6A6A6"/>
<path d="M401 349H443V406H429.5V391H414.5V406H401V349Z" fill="#291C11"/>
<rect x="415" y="263" width="14" height="14" fill="#291C11"/>
<rect x="429" y="263" width="14" height="43" fill="#291C11"/>
<path d="M343 235H415V249H343V235Z" fill="#503A2A"/>
<path d="M358 291.5H401V335H358V291.5Z" fill="#6D6966"/>
<rect x="372" y="249" width="14" height="43" fill="#6D6966"/>
<path d="M343 291.5H358V349H343V291.5Z" fill="#A48517"/>
<path d="M401 291.5H415V349H401V291.5Z" fill="#A48517"/>
<path d="M329 349H343V363H329V349Z" fill="#A48517"/>
<rect x="314" y="363" width="15" height="14" fill="#A48517"/>
<rect x="415" y="349" width="15" height="14" fill="#A48517"/>
<rect x="429" y="363" width="14" height="15" fill="#A48517"/>
<rect x="329" y="363" width="14" height="14" fill="#212833"/>
<rect x="329" y="377" width="14" height="30" fill="#838383"/>
<rect x="328" y="506" width="15" height="14" fill="#6D6966"/>
<path d="M343 392H357V506H343V392Z" fill="#6D6966"/>
<rect x="343" y="506" width="14" height="14" fill="#503A2A"/>
<path d="M443 463.5H457V506H443V463.5Z" fill="#838383"/>
<path d="M429 421H443V463.5H429V421Z" fill="#838383"/>
<rect x="429" y="506" width="14" height="14" fill="#838383"/>
<path d="M443 506H457V520H443V506Z" fill="#503A2A"/>
<path d="M358 49H401V120H372H358V49Z" fill="#A6A6A6"/>
<path d="M386 106.5V92H401V120H381.442H372V106.5H386Z" fill="#838383"/>
<path d="M372 49H401V78H386L386 63.5H372V49Z" fill="#838383"/>
<rect x="358" y="78" width="28" height="14" fill="#291C11"/>
<path d="M386 120V106.5H401V92H415V120.5H401V135.149H386.5V149H372.5V135.5H358V120H386Z" fill="#291C11"/>
<rect x="443" y="321" width="29" height="14" fill="#291C11"/>
<rect x="458" y="349" width="28" height="14" fill="#291C11"/>
<rect x="458" y="335" width="14" height="14" fill="#291C11"/>
<rect x="429" y="321" width="14" height="14" fill="#A6A6A6"/>
<rect x="443" y="278" width="14" height="43" fill="#A6A6A6"/>
<rect x="443" y="235" width="14" height="43" fill="#838383"/>
<rect x="443" y="178" width="15" height="42" fill="#838383"/>
<rect x="429" y="163" width="15" height="43" fill="#838383"/>
<rect x="472" y="363" width="14" height="15" fill="#291C11"/>
<rect x="486" y="391" width="14" height="16" fill="#291C11"/>
<rect x="500" y="420" width="14" height="15" fill="#291C11"/>
<rect x="472" y="378" width="28" height="13" fill="#291C11"/>
<rect x="486" y="407" width="28" height="13" fill="#291C11"/>
<rect x="443" y="220" width="28" height="15" fill="#A6A6A6"/>
<path d="M301 263H329V278H301V263Z" fill="#838383"/>
<path d="M286.5 277.5H314.5V291.5H286.5V277.5Z" fill="#838383"/>
<path d="M256.5 261.5H272V277.5H256.5V261.5Z" fill="#503A2A"/>
<path d="M272 277.5H286.5V291.5H272V277.5Z" fill="#503A2A"/>
<path d="M286.5 291.5H301.5V306.5H286.5V291.5Z" fill="#503A2A"/>
<path d="M272 306.5H286.5V321H272V306.5Z" fill="#503A2A"/>
<path d="M272 291.5H286.5V306.5H272V291.5Z" fill="#838383"/>
<path d="M257 306.5H272V321H257V306.5Z" fill="#838383"/>
<path d="M243 291.5H257V306.5H243V291.5Z" fill="#6D6966"/>
<path d="M215 306.5H230V321H215V306.5Z" fill="#6D6966"/>
<path d="M186 321H201V335H186V321Z" fill="#6D6966"/>
<path d="M157.5 335H172V349H157.5V335Z" fill="#6D6966"/>
<path d="M129 349H143.5V363.5H129V349Z" fill="#6D6966"/>
<path d="M100 363.5H115V378H100V363.5Z" fill="#6D6966"/>
<path d="M257 291.5H272V306.5H257V291.5Z" fill="#D7D7D7"/>
<path d="M230 306.5H243H257V321H230V306.5Z" fill="#D7D7D7"/>
<path d="M201 321H230V335H201V321Z" fill="#D7D7D7"/>
<path d="M172 335H201V349H172V335Z" fill="#D7D7D7"/>
<path d="M143.5 349H172V363.5H143.5V349Z" fill="#D7D7D7"/>
<path d="M115 363.5H143.5V378H115V363.5Z" fill="#D7D7D7"/>
<path d="M86 378H115V392H86V378Z" fill="#D7D7D7"/>
<path d="M429 349H443V363H429V349Z" fill="#405A94"/>
</svg>
